X:1
T:Fide  Deo, ut fidit
T:Daniel Friderici
T:Source : Bicinia sacra---Rostock---J.Richelius---1642. Editor :  André Vierendeels (12/07/17).
T:Notes : Orginal clefs : C1, C1 Editorial accidentals above the staff
T:Fide  Deo, ut fidit
T:©
T:©
C:Daniel Friderici
Z:©
%%score [ 1 2 ]
L:1/8
Q:1/4=120
M:2/2
K:C
V:1 treble nm="Soprano 1" snm="S 1"
V:2 treble nm="Soprano 2" snm="S 2"
V:1
 z4 e4 | d2 c2 B4 | z2 e2 c2 d2 | B2 c2 A2 B2 | G2 A2 F2 G2 | E2 C2 E2 C2 | G4 z2 c2- | c2 B2 c4 | %8
w: Fi-|de De- o,|fi- de De-|o, fi- de De-|o, fi- de De-|o, fi- de De-|o, fi-|* de De-|
 G4 z2 c2- | c2 B2 c4 | G4 z2 e2 | dcde d2 c2 | z4 z2 e2 | dcde d2 cc | B3 c A3 B | G3 A ^F3 G | %16
w: o, De-||o, ut|fi- * * * * dit,|ut|fi- * * * * dit, ut|fi- dit re- so-|lu- tis ar- tu-|
 A2 ^G2 A2 ^c2 | d3 e c3 d | B3 c A3 B | GABG A2 A2 | G8 :: z2 G2 A4 | G4 A4 | B4 c4 | z8 | %25
w: bus ae- ger, ut|fi- dit re- so-|lu- tis ar- tu-|bus _ _ _ _ ae-|ger:|Fi- den-|ti me-|di- cas,||
 z4 z2 G2 | A4 G4 | A4 B4 | c2 c2 d2 B2 | c4 d4 | e2 e3 e d2 | c2 B2 A3 G | AB c3 B/A/ B2 | c8 :| %34
w: fi-|den- ti|me- di-|cas, fi- den- ti|me- di-|cas por- ri- git|i- pse ma- *||nus.|
V:2
 c8 | B2 A2 G4- | G2 A4 G2- | G2 F4 E2- | E2 D4 C2 | G4 C2 c2- | c2 B2 c4 | G4 z2 c2- | c2 B2 c4 | %9
w: Fi-|de De- o,|_ fi- de|_ De- o,|_ fi- de|De- o, fi-|* de De-|o, fi-|* de De-|
 G4 z2 e2 | dcde d2 c2 | z4 z2 e2 | dcde d2 c2 | z4 z2 e2 | d3 e c3 d | B3 c A3 d | c2 B2 A2 A2 | %17
w: o, ut|fi- * * * * dit|ut|fi- * * * * dit,|ut|fi- dit re- so-|lu- tis ar- tu-|bus ae- ger, ut|
 B3 c A3 B | G3 A ^F3 G | E2 G3 ^F/E/ F2 | G8 :: z8 | z8 | z4 G4 | A4 G4 | A4 B4 | c4 z4 | %27
w: fi- dit re- so-|lu- tis ar- tu-|bus ae- * * *|ger:|||Fi-|den- ti|me- di-|cas,|
 z4 z2 G2 | A4 G4 | A4 B4 | c2 c3 c B2 | A2 G2 F3 E | D2 C2 D4 | C8 :| %34
w: fi-|den- ti|me- di-|cas por- ri- git|i- pse ma- *||nus.|

